X:44
C:Page 22
T:Leather Bottle. MBe.44, The
S:Matthew Betham MS, Towcett Cumbria, 1815
O:England;Cumbria;Towcett
Z:VMP – Hugh Taylor, 2012
M:2/4
L:1/8
Q:1/2=100
R:.Reel
W:The notes shown are as written, leaving them to the player to interpret.
K:D
“^As written”DFA|D2 FA|dfed|dcBA|dfdf|
dfed|cABc|d2:|
|:cd|ecA|ecA|gfed|cBAG|
FGAB|Afed|cABc|d4:|

